X:3009
T:Polska efter Erkgärds Mats Ersson
B:EÖ, nr 309
S:efter Erkgärds Mats Ersson
R:Polska
O:Grimsåker, Malungs sn, Dalarna
Z:Nils L
N:EÖ:s anm: "Vanlig rättfram polska uppt. Malung, V. Dalarne 1897"
L:1/8
M:3/4
K:Am
A>(^g a2) a>g | a>(b a2>>) (e2 | f>)e d>(e f>)(a | =g>)f ed cB |
A>^g a2 a>g | a>b a2>> e2 | f>e de fa | P=g2 e4 ::
a>f d>Pf e>f | e>c A>B c2 | TcB/c/ d>c B>^G | A>B cd e2 |
a>f d>f e> f | e>c A>B c2 | P(cB/c/ d>)c B>A | ^G2 A4 :|
(:musicend:)
(:music:)
